X: 153
T: Missa De beata virgine / Credo
N: Derived from Rue1035c-Missa_De_beata_virgine-Credo.krn
C: Pierre de la Rue
%%abc-version 2.0
%%abcx-abcm2ps-target-version 5.9.1 (29 Sep 2008)
%%abc-creator hum2abc beta
%%abcx-conversion-date 2019/02/17 08:01:16
%%abc-edited-by Jesse Rodin
%%abc-edited-by Chris Gage 06-04-2012
%%abcx-initial-encoding-date 2012/06/04/
%%humdrum-veritas 3122986023
%%humdrum-veritas-data 2062440975
%%linebreak <none>
%%barnumbers 0
L: 1/4
M: 2/1
Q: 1/2=120
V: 1 clef=treble
V: 2 clef=treble-8
V: 3 clef=treble-8
V: 4 clef=treble-8
V: 5 clef=bass
K: C
[V:1] z4E4- | 
[V:2] e8 | 
[V:3] z8 | 
[V:4] z8 | 
[V:5] z8 | 
[V:1] E2DCD4 | 
[V:2] f8 | 
[V:3] z8 | 
[V:4] z8 | 
[V:5] z8 | 
[V:1] E2A,2A4- | 
[V:2] e4c4 | 
[V:3] z8 | 
[V:4] A8 | 
[V:5] z8 | 
[V:1] A2GFG4 | 
[V:2] d6e2 | 
[V:3] z8 | 
[V:4] _B8 | 
[V:5] z8 | 
[V:1] A8 | 
[V:2] f4d4 | 
[V:3] A6B2 | 
[V:4] A4F4 | 
[V:5] D,8 | 
[V:1] z4G4 | 
[V:2] e8 | 
[V:3] c4c4 | 
[V:4] G6A2 | 
[V:5] C,4C,4 | 
[V:1] G4G4- | 
[V:2] d8 | 
[V:3] d2G2_B3c | 
[V:4] _B4G4 | 
[V:5] G,6F,E, | 
[V:1] G2^FEF4 | 
[V:2] z8 | 
[V:3] d4D4- | 
[V:4] A8 | 
[V:5] D,4D,4 | 
[V:1] G8 | 
[V:2] B4c4 | 
[V:3] D4E4 | 
[V:4] G8 | 
[V:5] G,,4C,4 | 
[V:1] z8 | 
[V:2] d4B4 | 
[V:3] F4G4- | 
[V:4] z8 | 
[V:5] _B,,4G,,4 | 
[V:1] z8 | 
[V:2] c4d4 | 
[V:3] G4A4 | 
[V:4] E4F4 | 
[V:5] C,3E,D,4 | 
[V:1] z8 | 
[V:2] e8 | 
[V:3] c6B2 | 
[V:4] G4E4 | 
[V:5] C,4C,4 | 
[V:1] z8 | 
[V:2] d8 | 
[V:3] A4G3F | 
[V:4] F4G4 | 
[V:5] D,4G,,2G,2- | 
[V:1] z8 | 
[V:2] z8 | 
[V:3] D8 | 
[V:4] A8 | 
[V:5] G,2^F,E,F,4 | 
[V:1] z4E4 | 
[V:2] B4c4 | 
[V:3] z2G4G2 | 
[V:4] G8 | 
[V:5] G,4C,2E,2 | 
[V:1] F4G4 | 
[V:2] d4d4 | 
[V:3] A4B4 | 
[V:4] z8 | 
[V:5] D,4G,,4 | 
[V:1] G4A4 | 
[V:2] e4c2d2- | 
[V:3] c3BA4 | 
[V:4] E4F4 | 
[V:5] C,4z4 | 
[V:1] D2G3FED | 
[V:2] dcBAB4 | 
[V:3] G3FE4 | 
[V:4] G4G4 | 
[V:5] z8 | 
[V:1] CDECD4 | 
[V:2] A4z4 | 
[V:3] E4D4 | 
[V:4] A4F2G2- | 
[V:5] A,,4_B,,4 | 
[V:1] z8 | 
[V:2] e8 | 
[V:3] z4G4 | 
[V:4] GFEDE4 | 
[V:5] C,4C,4 | 
[V:1] A6B2 | 
[V:2] f8 | 
[V:3] F4A4- | 
[V:4] D4z4 | 
[V:5] D,8 | 
[V:1] c4c4 | 
[V:2] e8 | 
[V:3] A2G2E4 | 
[V:4] A8 | 
[V:5] A,,4C,4 | 
[V:1] d6G2 | 
[V:2] d6d2 | 
[V:3] F4G4 | 
[V:4] _B8 | 
[V:5] _B,,4G,,4 | 
[V:1] A2F2c4 | 
[V:2] d4c4 | 
[V:3] F4E4 | 
[V:4] A8 | 
[V:5] D,4A,,4 | 
[V:1] B4z4 | 
[V:2] d8 | 
[V:3] D6D2 | 
[V:4] G6G2 | 
[V:5] B,,6G,,2 | 
[V:1] G4A4 | 
[V:2] z8 | 
[V:3] D4C4 | 
[V:4] G4F4 | 
[V:5] B,,4A,,4 | 
[V:1] B6G2 | 
[V:2] d4d2d2- | 
[V:3] D4G4- | 
[V:4] G8 | 
[V:5] G,,4z4 | 
[V:1] B3cd4 | 
[V:2] d2d2d2d2 | 
[V:3] G2G2G3A | 
[V:4] z8 | 
[V:5] G,,6G,,2 | 
[V:1] G4z2G2- | 
[V:2] d4B4 | 
[V:3] BABcd2e2- | 
[V:4] G4G2G2- | 
[V:5] G,,4G,,4 | 
[V:1] G2E2D4 | 
[V:2] c4d4 | 
[V:3] edc4B2 | 
[V:4] G2G2G2G2 | 
[V:5] C,4G,,4 | 
[V:1] C4G4 | 
[V:2] e8 | 
[V:3] c4z2c2 | 
[V:4] G4E4 | 
[V:5] C,4z2C,2 | 
[V:1] F3ED4 | 
[V:2] z8 | 
[V:3] A4B4 | 
[V:4] F4G4 | 
[V:5] D,4B,,4 | 
[V:1] C4c3B | 
[V:2] e8 | 
[V:3] c6A2 | 
[V:4] A8 | 
[V:5] A,,8 | 
[V:1] AGA2F2A2- | 
[V:2] f8 | 
[V:3] A4z2D2 | 
[V:4] z8 | 
[V:5] D,8 | 
[V:1] A2GFE4 | 
[V:2] e4c4 | 
[V:3] E4E4 | 
[V:4] A8 | 
[V:5] C,4C,4 | 
[V:1] D2d4B2 | 
[V:2] d8 | 
[V:3] F4G3F | 
[V:4] _B8 | 
[V:5] _B,,4G,,4 | 
[V:1] c2A3GAB | 
[V:2] c4f4 | 
[V:3] E4D4 | 
[V:4] A4F4 | 
[V:5] A,,4D,4 | 
[V:1] c2d2G4 | 
[V:2] e2d4^c2 | 
[V:3] z4z2G2 | 
[V:4] G8 | 
[V:5] C,2B,,2E,4 | 
[V:1] z4z2D2 | 
[V:2] d8 | 
[V:3] A2F2G2F2- | 
[V:4] F4_B4 | 
[V:5] D,4G,,2D,2- | 
[V:1] F2G2ABcA | 
[V:2] z8 | 
[V:3] FED4C2 | 
[V:4] A2G4^F2 | 
[V:5] D,2B,,2A,,4 | 
[V:1] B2G4FE | 
[V:2] B4c4 | 
[V:3] D4E4 | 
[V:4] G8 | 
[V:5] G,,4C,4 | 
[V:1] D4z2D2 | 
[V:2] d4B4 | 
[V:3] F4G4- | 
[V:4] z8 | 
[V:5] B,,4G,,4 | 
[V:1] E2E2D2d2- | 
[V:2] c4d4- | 
[V:3] G2A2B4 | 
[V:4] E4F4 | 
[V:5] C,4B,,4 | 
[V:1] dcBAG2A2- | 
[V:2] d4e4 | 
[V:3] B4c4 | 
[V:4] G4E4 | 
[V:5] G,,4C,4 | 
[V:1] AGFED2G2- | 
[V:2] z8 | 
[V:3] A4B4 | 
[V:4] F4G4- | 
[V:5] D,4B,,4 | 
[V:1] GFEDC4 | 
[V:2] e8 | 
[V:3] G2c3BAG | 
[V:4] G4A4 | 
[V:5] C,4A,,4 | 
[V:1] D4A,3B, | 
[V:2] f8 | 
[V:3] F4z2A2- | 
[V:4] z8 | 
[V:5] z2D,3C,D,2 | 
[V:1] C3DE3F | 
[V:2] e4c4 | 
[V:3] AGA2E4 | 
[V:4] A8 | 
[V:5] A,,2C,3B,,C,2 | 
[V:1] G4G4 | 
[V:2] d4e4 | 
[V:3] z2G3FG2 | 
[V:4] _B8 | 
[V:5] G,,4G,4 | 
[V:1] A8 | 
[V:2] f6ed | 
[V:3] D8 | 
[V:4] A4F4 | 
[V:5] F,3E,D,4 | 
[V:1] z8 | 
[V:2] e2d4^c2 | 
[V:3] z2D2F2E2 | 
[V:4] G4A4 | 
[V:5] C,2B,,2A,,4 | 
[V:1] z4D4 | 
[V:2] d8 | 
[V:3] G6D2 | 
[V:4] _B6AG | 
[V:5] G,,8 | 
[V:1] C2B,2A,4 | 
[V:2] z8 | 
[V:3] F2G2D4 | 
[V:4] A2G4^F2 | 
[V:5] z8 | 
[V:1] G,4z2B,2 | 
[V:2] z4d4 | 
[V:3] E4D2G2 | 
[V:4] G8 | 
[V:5] z4G,,4 | 
[V:1] B,2B,2C4 | 
[V:2] d2d2e4 | 
[V:3] G2G2E4 | 
[V:4] z8 | 
[V:5] G,,2G,,2C,4 | 
[V:1] B,2G,2G4- | 
[V:2] d2d2d2d2 | 
[V:3] G4z2D2 | 
[V:4] z4G4 | 
[V:5] G,,8 | 
[V:1] G4F4 | 
[V:2] B2c2d4 | 
[V:3] E2E2D2D2 | 
[V:4] G2G2A4 | 
[V:5] z4z2D,2 | 
[V:1] z2G2B2B2 | 
[V:2] B2c2d4 | 
[V:3] G2E2D2G2 | 
[V:4] G2G2G2G2 | 
[V:5] G,,2C,2B,,2G,,2 | 
[V:1] G2A2B2G2 | 
[V:2] e2cdefe2- | 
[V:3] C4z4 | 
[V:4] E2F2G4 | 
[V:5] C,2A,,2G,,2C,2- | 
[V:1] c2_B4AG | 
[V:2] edd4c2 | 
[V:3] z8 | 
[V:4] E2F2G4 | 
[V:5] C,2D,2E,4 | 
[V:1] F4z2F2 | 
[V:2] d8 | 
[V:3] z2D2D2F2 | 
[V:4] A2FGA_BA2- | 
[V:5] D,4z2D,2 | 
[V:1] G4A4 | 
[V:2] z8 | 
[V:3] EDD4C2 | 
[V:4] AGG4^F2 | 
[V:5] C,2B,,2A,,4 | 
[V:1] B3cd2GA | 
[V:2] z4B3c | 
[V:3] D4z2G2- | 
[V:4] G8 | 
[V:5] G,,8 | 
[V:1] Bcd2G2d2- | 
[V:2] d2d2d4 | 
[V:3] G2G2G2G2 | 
[V:4] z8 | 
[V:5] z2G,,4G,,2 | 
[V:1] dcB4A2 | 
[V:2] B4c2c2 | 
[V:3] G4C4 | 
[V:4] z4E3F | 
[V:5] G,,2G,,2A,,4 | 
[V:1] B4z4 | 
[V:2] B2e2d2B2 | 
[V:3] z8 | 
[V:4] G2G2G4 | 
[V:5] G,,8 | 
[V:1] G4A4 | 
[V:2] cBe4d2 | 
[V:3] z8 | 
[V:4] E4F2F2 | 
[V:5] z8 | 
[V:1] G2CDEFG2 | 
[V:2] e4z4 | 
[V:3] z8 | 
[V:4] E2A2G2E2 | 
[V:5] C,3C,C,2C,2 | 
[V:1] C4D4 | 
[V:2] z8 | 
[V:3] z8 | 
[V:4] FEA4^G2 | 
[V:5] A,,2C,2B,,4 | 
[V:1] C4z4 | 
[V:2] z2e2f2e2 | 
[V:3] z2A2F2G2 | 
[V:4] A4z4 | 
[V:5] A,,4z4 | 
[V:1] z8 | 
[V:2] c2d2d2^c2 | 
[V:3] A2F2G2A2 | 
[V:4] z8 | 
[V:5] z8 | 
[V:1] z8 | 
[V:2] d8 | 
[V:3] D4z4 | 
[V:4] z2A2_B2A2 | 
[V:5] z2D,2_B,,2C,2 | 
[V:1] z8 | 
[V:2] z8 | 
[V:3] z8 | 
[V:4] F2G2G2^F2 | 
[V:5] D,2_B,,2C,2D,2 | 
[V:1] z8 | 
[V:2] d4d2d2- | 
[V:3] B4B2B2- | 
[V:4] G8 | 
[V:5] G,,2G,2G,2G,2 | 
[V:1] z8 | 
[V:2] d2d2e2d2 | 
[V:3] B2B2c2A2 | 
[V:4] z8 | 
[V:5] G,4E,2F,2 | 
[V:1] z2D2E2C2 | 
[V:2] B4c4 | 
[V:3] G4z4 | 
[V:4] G4G2G2- | 
[V:5] G,2G,,2C,4 | 
[V:1] D2E2F2G2 | 
[V:2] B3cd2B2 | 
[V:3] G2E2D2G2- | 
[V:4] G2G2A2G2 | 
[V:5] z4z2G,,2 | 
[V:1] z8 | 
[V:2] c4d4 | 
[V:3] G2G2A2B2 | 
[V:4] E4F4 | 
[V:5] C,3E,D,4 | 
[V:1] z2G2G2G2 | 
[V:2] e8 | 
[V:3] c2CDEFGE | 
[V:4] E3FG2E2 | 
[V:5] C,4z2C,2 | 
[V:1] F2A2G2E2 | 
[V:2] z2A2B2c2 | 
[V:3] A2D2G2C2 | 
[V:4] F4G4 | 
[V:5] D,2F,2E,4 | 
[V:1] F4z2E2 | 
[V:2] d4e4 | 
[V:3] z2D4C2 | 
[V:4] A8 | 
[V:5] D,4A,,4 | 
[V:1] F4G2A2- | 
[V:2] d4z4 | 
[V:3] D2F2E2D2 | 
[V:4] z2D2E2F2 | 
[V:5] z2A,2G,2F,2 | 
[V:1] AGG4^F2 | 
[V:2] z8 | 
[V:3] z8 | 
[V:4] G4A4 | 
[V:5] E,4D,4 | 
[V:1] G8 | 
[V:2] z2d2d2d2 | 
[V:3] z2D2D2D2 | 
[V:4] G4z4 | 
[V:5] G,,8 | 
[V:1] z2G2G2E2 | 
[V:2] B4c4 | 
[V:3] G3FE4 | 
[V:4] z8 | 
[V:5] z8 | 
[V:1] F2G2D4 | 
[V:2] d4z2B2 | 
[V:3] D8 | 
[V:4] z2G2G2G2 | 
[V:5] z2G,,2G,,2G,,2 | 
[V:1] z8 | 
[V:2] c4c4 | 
[V:3] z8 | 
[V:4] E4F4 | 
[V:5] C,3B,,A,,4 | 
[V:1] z8 | 
[V:2] B3cd2e2- | 
[V:3] z8 | 
[V:4] G4z2E2 | 
[V:5] G,,3A,,B,,2C,2 | 
[V:1] z4F4 | 
[V:2] e2dcd4 | 
[V:3] z4A4 | 
[V:4] F4F4 | 
[V:5] D,4z2D,2 | 
[V:1] G4E4 | 
[V:2] e8 | 
[V:3] c4c4 | 
[V:4] E3FG2A2- | 
[V:5] C,4C,4 | 
[V:1] F2D2d4 | 
[V:2] z8 | 
[V:3] A4D4 | 
[V:4] A2^G^F^G4 | 
[V:5] D,4B,,4 | 
[V:1] c8 | 
[V:2] z4e4 | 
[V:3] E4A4 | 
[V:4] A8 | 
[V:5] A,,8 | 
[V:1] A4_B4 | 
[V:2] f4d4 | 
[V:3] F4G4 | 
[V:4] z8 | 
[V:5] D,4_B,,4 | 
[V:1] G4c4 | 
[V:2] e4c4 | 
[V:3] E3FE2C2 | 
[V:4] z4A4 | 
[V:5] C,4A,,4 | 
[V:1] _B2G2B4 | 
[V:2] d4d4 | 
[V:3] G4G4 | 
[V:4] _B4G4 | 
[V:5] G,,4G,,4 | 
[V:1] A6=B2 | 
[V:2] z4f4 | 
[V:3] F8 | 
[V:4] A4F4 | 
[V:5] D,8 | 
[V:1] c4d4 | 
[V:2] e4d4 | 
[V:3] z4D4 | 
[V:4] G4G4 | 
[V:5] C,4B,,4 | 
[V:1] G8 | 
[V:2] c4d4 | 
[V:3] E4G4 | 
[V:4] z4_B4 | 
[V:5] C,4G,,4 | 
[V:1] z4d4 | 
[V:2] d8- | 
[V:3] F4G4 | 
[V:4] A4G4 | 
[V:5] D,4G,,4 | 
[V:1] d4d4 | 
[V:2] d8- | 
[V:3] D8- | 
[V:4] F4G4 | 
[V:5] _B,,6G,,2 | 
[V:1] B6G2 | 
[V:2] d8- | 
[V:3] D8- | 
[V:4] G8- | 
[V:5] G,,8- | 
[V:1] G8 ||  
[V:2] d8 ||  
[V:3] D8 ||  
[V:4] G8 ||  
[V:5] G,,8 ||  
[V:1]  [K:C] [M:2/1]z4G4 | 
[V:2]  [K:C] [M:2/1]d4e4 | 
[V:3]  [K:C] [M:2/1]G4E4 | 
[V:4]  [K:C] [M:2/1]z8 | 
[V:5]  [K:C] [M:2/1]z8 | 
[V:1] A4G4 | 
[V:2] d4B4 | 
[V:3] F4G4 | 
[V:4] z8 | 
[V:5] z8 | 
[V:1] E8 | 
[V:2] c2c2c2c2 | 
[V:3] z8 | 
[V:4] G4A4 | 
[V:5] C,4A,,4 | 
[V:1] z8 | 
[V:2] d4e4 | 
[V:3] z4G2G2 | 
[V:4] G4E4 | 
[V:5] B,,4C,4 | 
[V:1] C2C2D2F2 | 
[V:2] z8 | 
[V:3] A2A2A3B | 
[V:4] F2F2F2F2 | 
[V:5] A,,2A,,2D,2D,2 | 
[V:1] E3CC2C2 | 
[V:2] z8 | 
[V:3] c4z4 | 
[V:4] G4A4 | 
[V:5] C,4A,,4 | 
[V:1] C2C2D2E2- | 
[V:2] z2e2f2e2 | 
[V:3] z2A2F2G2 | 
[V:4] z8 | 
[V:5] z8 | 
[V:1] EDD4^C2 | 
[V:2] c2d2e4 | 
[V:3] A2_B2A4 | 
[V:4] z8 | 
[V:5] z8 | 
[V:1] D2F2G2A2- | 
[V:2] d4z4 | 
[V:3] D4z4 | 
[V:4] z2A2_B2A2 | 
[V:5] z2D,2_B,,2C,2 | 
[V:1] AGG2^FGAF | 
[V:2] z8 | 
[V:3] z8 | 
[V:4] F2G2A4 | 
[V:5] D,2_E,2D,4 | 
[V:1] G6AB | 
[V:2] z4e4- | 
[V:3] z4G4 | 
[V:4] G4z4 | 
[V:5] G,,4C,4- | 
[V:1] c4c4 | 
[V:2] e4e4 | 
[V:3] E4A4- | 
[V:4] z8 | 
[V:5] C,4A,,4 | 
[V:1] A4A4 | 
[V:2] f6e2 | 
[V:3] A2A2A2A2 | 
[V:4] z4A4- | 
[V:5] D,4D,4 | 
[V:1] A6F2 | 
[V:2] d4c4 | 
[V:3] D4z2F2- | 
[V:4] A4A4 | 
[V:5] F,6F,2 | 
[V:1] F4z4 | 
[V:2] d4z4 | 
[V:3] F2D2F2E2- | 
[V:4] _B6A2 | 
[V:5] _B,,3C,D,2C,2- | 
[V:1] z8 | 
[V:2] z8 | 
[V:3] EDD4C2 | 
[V:4] G4^F4 | 
[V:5] C,_B,,A,,G,,A,,4 | 
[V:1] z8 | 
[V:2] z4d4 | 
[V:3] D4z2D2 | 
[V:4] G4z4 | 
[V:5] G,,8 | 
[V:1] z2G2G4 | 
[V:2] d4e4 | 
[V:3] G4E4 | 
[V:4] z8 | 
[V:5] z8 | 
[V:1] A4G4 | 
[V:2] d4B4 | 
[V:3] F4G4 | 
[V:4] z4G4 | 
[V:5] z4z2G,,2 | 
[V:1] E8 | 
[V:2] c4c2c2 | 
[V:3] z8 | 
[V:4] G4A4 | 
[V:5] C,4A,,4 | 
[V:1] z4G4 | 
[V:2] d4e4 | 
[V:3] z8 | 
[V:4] G4E4 | 
[V:5] B,,4C,4 | 
[V:1] [M:3/3](3:2:6A3Bc2F3GA2 | 
[V:2] z8 | 
[V:3] z2C2D2C2 | 
[V:4] F4F2F2 | 
[V:5] z2A,,2_B,,2A,,2 | 
[V:1] [M:2/1]D2d2c3A | 
[V:2] z4e4 | 
[V:3] D4E2A2- | 
[V:4] G4A4 | 
[V:5] _B,,4A,,4 | 
[V:1] A8 | 
[V:2] f4e4 | 
[V:3] AGABcde2- | 
[V:4] z8 | 
[V:5] D,4C,4 | 
[V:1] z2A2cBAG | 
[V:2] c2d2e4 | 
[V:3] e2d4^c2 | 
[V:4] z4A4 | 
[V:5] A,,2D,2A,,4 | 
[V:1] F2DEFGA2- | 
[V:2] d8 | 
[V:3] d3DDEFG | 
[V:4] _B4A4 | 
[V:5] D,8- | 
[V:1] AGG4^F2 | 
[V:2] z8 | 
[V:3] A2_B2A2d2- | 
[V:4] F2G2A4 | 
[V:5] D,8 | 
[V:1] G8 | 
[V:2] B3cd2B2 | 
[V:3] d2GABcd2- | 
[V:4] G8 | 
[V:5] G,,4G,4 | 
[V:1] z8 | 
[V:2] c4d4 | 
[V:3] dcc4B2 | 
[V:4] z8 | 
[V:5] F,2E,2D,4 | 
[V:1] z2G2E2G2 | 
[V:2] e8 | 
[V:3] c8 | 
[V:4] E3FG2E2 | 
[V:5] C,2C,2C,2C,2 | 
[V:1] F3ED4 | 
[V:2] z8 | 
[V:3] z8 | 
[V:4] F4G4 | 
[V:5] D,2A,,2B,,4 | 
[V:1] C8 | 
[V:2] z2e2e2e2 | 
[V:3] z2A2c3B | 
[V:4] A8 | 
[V:5] A,,8 | 
[V:1] z8 | 
[V:2] f3ed2^c2 | 
[V:3] A2G2F2E2 | 
[V:4] z8 | 
[V:5] z8 | 
[V:1] z8 | 
[V:2] d8 | 
[V:3] D8 | 
[V:4] z2A2A2A2 | 
[V:5] z2D,2F,3E, | 
[V:1] z8 | 
[V:2] z8 | 
[V:3] z8 | 
[V:4] _B3AG2^F2 | 
[V:5] D,2C,2_B,,2A,,2 | 
[V:1] z2G2G3G | 
[V:2] z2d2B2c2 | 
[V:3] z2D2E3E | 
[V:4] G8 | 
[V:5] G,,4z4 | 
[V:1] F2A2G3E | 
[V:2] d2A2B2c2 | 
[V:3] D2F2E2E2 | 
[V:4] z8 | 
[V:5] z8 | 
[V:1] F2G2z4 | 
[V:2] d4z4 | 
[V:3] D4z4 | 
[V:4] z2G2E2F2 | 
[V:5] z2G,,2A,,3A,, | 
[V:1] z2d2c2A2 | 
[V:2] z8 | 
[V:3] z8 | 
[V:4] G2D2E2F2 | 
[V:5] G,,2B,,2A,,2A,,2 | 
[V:1] B2d2c2A2 | 
[V:2] d2B2c2d2 | 
[V:3] z2G2E2F2 | 
[V:4] G4z4 | 
[V:5] G,,4z4 | 
[V:1] G4z4 | 
[V:2] B2c2d2e2 | 
[V:3] G2E2F2G2 | 
[V:4] z8 | 
[V:5] z8 | 
[V:1] z8 | 
[V:2] z8 | 
[V:3] E4z4 | 
[V:4] G2E2F2G2 | 
[V:5] z2C,2A,,2B,,2 | 
[V:1] z8 | 
[V:2] z4z2e2 | 
[V:3] z8 | 
[V:4] E2F2G2A2 | 
[V:5] C,2A,,2B,,2C,2 | 
[V:1] z2A2A2G2 | 
[V:2] f3ef2e2- | 
[V:3] z8 | 
[V:4] z8 | 
[V:5] D,4z4 | 
[V:1] F4E4 | 
[V:2] edd4^c2 | 
[V:3] z8 | 
[V:4] z4z2A2 | 
[V:5] z8 | 
[V:1] D4z4 | 
[V:2] d4z4 | 
[V:3] z2F2F2E2- | 
[V:4] _B3A_B2A2- | 
[V:5] z2D,2D,2C,2 | 
[V:1] z8 | 
[V:2] z8 | 
[V:3] EDD4C2 | 
[V:4] AGG4^F2 | 
[V:5] _B,,4A,,4 | 
[V:1] d8 | 
[V:2] d8 | 
[V:3] D4z4 | 
[V:4] G4z4 | 
[V:5] G,,4z4 | 
[V:1] B8 | 
[V:2] d8 | 
[V:3] G8 | 
[V:4] z8 | 
[V:5] G,,8 | 
[V:1] c8 | 
[V:2] e8 | 
[V:3] E4C4 | 
[V:4] G8 | 
[V:5] C,8 | 
[V:1] B8 | 
[V:2] d8 | 
[V:3] D6E2 | 
[V:4] G8 | 
[V:5] G,,8 | 
[V:1] z4A4 | 
[V:2] z4d4 | 
[V:3] F8 | 
[V:4] A8 | 
[V:5] D,8 | 
[V:1] B6G2 | 
[V:2] d4d4 | 
[V:3] z4G4 | 
[V:4] G8 | 
[V:5] z4G,,4 | 
[V:1] G8 | 
[V:2] e8 | 
[V:3] E4C4 | 
[V:4] z4G4 | 
[V:5] C,8 | 
[V:1] z4G4- | 
[V:2] d8- | 
[V:3] D6E2 | 
[V:4] G4G4 | 
[V:5] B,,4G,,4 | 
[V:1] G2^FEF4 | 
[V:2] d8- | 
[V:3] F4D4 | 
[V:4] A8 | 
[V:5] D,8 | 
[V:1] G8 ||  
[V:2] d8 ||  
[V:3] D8 ||  
[V:4] G8 ||  
[V:5] G,,8 ||  
[V:1]  [K:C] [M:2/1]z8 | 
[V:2]  [K:C] [M:2/1]z8 | 
[V:3]  [K:C] [M:2/1]z8 | 
[V:4]  [K:C] [M:2/1]E8 | 
[V:5]  [K:C] [M:2/1]z8 | 
[V:1] z8 | 
[V:2] z8 | 
[V:3] z8 | 
[V:4] F4G4- | 
[V:5] z8 | 
[V:1] z8 | 
[V:2] B8 | 
[V:3] z8 | 
[V:4] G2G2G4 | 
[V:5] z4E,4- | 
[V:1] z8 | 
[V:2] c4d4- | 
[V:3] z8 | 
[V:4] z8 | 
[V:5] E,4F,4 | 
[V:1] z2B4A2 | 
[V:2] d2d2d4 | 
[V:3] z8 | 
[V:4] z2G4F2 | 
[V:5] G,3F,D,4 | 
[V:1] B4G4 | 
[V:2] z8 | 
[V:3] z4z2B2- | 
[V:4] G4E4 | 
[V:5] G,,4z2G,2- | 
[V:1] A4z2G2- | 
[V:2] z2d4c2 | 
[V:3] B2A2B2G2 | 
[V:4] D6z2 | 
[V:5] G,2F,2G,2E,2 | 
[V:1] G2F2G4 | 
[V:2] d4B4 | 
[V:3] A4z2G2 | 
[V:4] z8 | 
[V:5] D,4G,,4 | 
[V:1] A4A4 | 
[V:2] A4z4 | 
[V:3] F4F4 | 
[V:4] z4A4 | 
[V:5] D,8 | 
[V:1] D3CD2E2 | 
[V:2] z8 | 
[V:3] G4G4 | 
[V:4] _B8 | 
[V:5] z4G,4 | 
[V:1] F2D3^CCB, | 
[V:2] z4e4 | 
[V:3] D4z2G2 | 
[V:4] A4G4- | 
[V:5] F,4E,4 | 
[V:1] D8 | 
[V:2] f8 | 
[V:3] A3GA2B2 | 
[V:4] G2FEF4 | 
[V:5] D,4D,4 | 
[V:1] z4G4 | 
[V:2] e4d4- | 
[V:3] c4B4 | 
[V:4] G8 | 
[V:5] C,3B,,G,,2G,2- | 
[V:1] G4G4 | 
[V:2] d2cBc4 | 
[V:3] G8 | 
[V:4] z4G4 | 
[V:5] G,F,E,D,E,4 | 
[V:1] F6ED | 
[V:2] d8 | 
[V:3] z4A4 | 
[V:4] A4F4 | 
[V:5] D,8 | 
[V:1] D4_B,4 | 
[V:2] z4d4 | 
[V:3] _B2G3FG2 | 
[V:4] G4z4 | 
[V:5] z4G,,4 | 
[V:1] C4C4 | 
[V:2] e4c4 | 
[V:3] E3DE2F2- | 
[V:4] G4A4 | 
[V:5] C,4A,,4 | 
[V:1] _B,4_B4- | 
[V:2] d4z4 | 
[V:3] F2D2D4 | 
[V:4] F4G4- | 
[V:5] _B,,4G,,4- | 
[V:1] B2AGG2c2- | 
[V:2] d4e4 | 
[V:3] G4E3D | 
[V:4] G4G4 | 
[V:5] G,,2G,,2C,4 | 
[V:1] c_BAG^FGAF | 
[V:2] c4d4- | 
[V:3] E2F4D2 | 
[V:4] A8 | 
[V:5] A,,2A,,2D,4 | 
[V:1] G8- | 
[V:2] d4d4 | 
[V:3] D4G4 | 
[V:4] G8 | 
[V:5] G,,4z2G,,2 | 
[V:1] G8 | 
[V:2] e8 | 
[V:3] E3FG4 | 
[V:4] z8 | 
[V:5] C,3D,E,2F,2 | 
[V:1] z8 | 
[V:2] d8 | 
[V:3] z2B2A4 | 
[V:4] G4A4 | 
[V:5] G,2G,,2D,4 | 
[V:1] z8 | 
[V:2] z8 | 
[V:3] A4G2B2- | 
[V:4] F4G4 | 
[V:5] z8 | 
[V:1] (3:2:2G8c4- | 
[V:2] d4e4 | 
[V:3] BAGFE3D | 
[V:4] z4G4 | 
[V:5] G,,4C,4 | 
[V:1] (3:2:2c4A8 | 
[V:2] c4d4 | 
[V:3] E2F4D2 | 
[V:4] A4F4 | 
[V:5] A,,4D,4 | 
[V:1] (3:2:2B8G4- | 
[V:2] z4d4 | 
[V:3] d3cBAG2- | 
[V:4] G4z4 | 
[V:5] z4G,,4 | 
[V:1] (3:2:2G4c8 | 
[V:2] e4c4 | 
[V:3] GFEDE2F2- | 
[V:4] G4A4 | 
[V:5] C,4A,,4 | 
[V:1] (3:2:2A8d4- | 
[V:2] d4z4 | 
[V:3] FGA2D2d2 | 
[V:4] F4F4 | 
[V:5] D,8 | 
[V:1] (3:2:2d4G8 | 
[V:2] d4e4 | 
[V:3] B2d2c4- | 
[V:4] G8 | 
[V:5] G,,4C,4 | 
[V:1] c3Bc2A2- | 
[V:2] c4c4 | 
[V:3] c2A2A4 | 
[V:4] A4z4 | 
[V:5] A,,6A,,2 | 
[V:1] AGFED4 | 
[V:2] d8 | 
[V:3] F4G4 | 
[V:4] A4_B4 | 
[V:5] D,4G,,4 | 
[V:1] C4z4 | 
[V:2] e4z4 | 
[V:3] E6C2 | 
[V:4] G3FG2A2- | 
[V:5] C,6C,2 | 
[V:1] C4A,4 | 
[V:2] e4f4 | 
[V:3] E4D4 | 
[V:4] A2G2FGAF | 
[V:5] C,4D,4 | 
[V:1] _B,2_B3AG2- | 
[V:2] d3cd2e2- | 
[V:3] z2G4E2 | 
[V:4] G8 | 
[V:5] G,,3A,,_B,,2C,2- | 
[V:1] GFD2E4 | 
[V:2] e2d2^cde^c | 
[V:3] G2F2A4 | 
[V:4] z4E4 | 
[V:5] C,2D,2A,,4 | 
[V:1] D2d2d2d2 | 
[V:2] d8 | 
[V:3] D4z2D2 | 
[V:4] F4G4- | 
[V:5] z2_B,,4G,,2 | 
[V:1] G2d3cB2 | 
[V:2] z4B4 | 
[V:3] E2D2d4 | 
[V:4] G2G2G2G2 | 
[V:5] C,2_B,,2G,,2G,2 | 
[V:1] AGG4^F2 | 
[V:2] c4d4- | 
[V:3] z8 | 
[V:4] A4A4 | 
[V:5] F,3E,D,4 | 
[V:1] G8 | 
[V:2] d2d2d2d2 | 
[V:3] B4B4 | 
[V:4] G4z2G2 | 
[V:5] G,,4z2G,,2 | 
[V:1] z4G4 | 
[V:2] e4e4 | 
[V:3] c4c4 | 
[V:4] G2G2G4 | 
[V:5] C,2C,2C,4 | 
[V:1] G2G2G4 | 
[V:2] d4z2d2 | 
[V:3] B2B2B2B2 | 
[V:4] G2G2G2G2 | 
[V:5] G,,2G,,2G,,2G,,2 | 
[V:1] F2F2F2F2 | 
[V:2] d2d2d4 | 
[V:3] A2D2D2D2 | 
[V:4] A4z2A2 | 
[V:5] D,4z2D,2 | 
[V:1] G4z2G2 | 
[V:2] d2d2d2d2 | 
[V:3] G4G4 | 
[V:4] _B2_B2_B2_B2 | 
[V:5] G,,3G,,G,,2G,,2 | 
[V:1] G2G2E2E2 | 
[V:2] e4z2e2 | 
[V:3] E3FG2A2 | 
[V:4] c4c4 | 
[V:5] C,4C,4 | 
[V:1] D4z2A2 | 
[V:2] f2f2f2f2 | 
[V:3] F2D2d4 | 
[V:4] _B4A4 | 
[V:5] D,4D,4 | 
[V:1] BABcd2e2- | 
[V:2] g4g4 | 
[V:3] z2d2B2c2 | 
[V:4] G4z4 | 
[V:5] G,,4z4 | 
[V:1] edd4^c2 | 
[V:2] f4e4 | 
[V:3] d4A4 | 
[V:4] z8 | 
[V:5] z8 | 
[V:1] [M:3/3]d8 | 
[V:2] [M:3/3]d4z4 | 
[V:3] [M:3/3](3:2:2B8A4 | 
[V:4] [M:3/3](3:2:2G8F4 | 
[V:5] [M:3/3](3:2:2G,,8D,4 | 
[V:1] z8 | 
[V:2] z8 | 
[V:3] (3:2:2G4c8 | 
[V:4] (3:2:2G4A8 | 
[V:5] (3:2:2E,4F,8 | 
[V:1] (3:2:2G8G4 | 
[V:2] (3:2:2d8c4 | 
[V:3] (3:2:2B8G4 | 
[V:4] (3:2:2G8z4 | 
[V:5] (3G,6F,2E,4 | 
[V:1] (3F4G6A2 | 
[V:2] (3:2:2d4e8 | 
[V:3] (3:2:2A4c8 | 
[V:4] z8 | 
[V:5] (3:2:2D,4C,8 | 
[V:1] (3B4G4A4 | 
[V:2] (3:2:2d8z4 | 
[V:3] (3:2:2B8A4 | 
[V:4] (3:2:2G8F4 | 
[V:5] (3:2:2G,,8D,4 | 
[V:1] (3G4^F6E2 | 
[V:2] z8 | 
[V:3] (3:2:2c4d8 | 
[V:4] (3:2:2G4A8 | 
[V:5] (3:2:2E,4D,8 | 
[V:1] (3:2:2G8E4 | 
[V:2] (3:2:2d8c4 | 
[V:3] (3B4G6A2 | 
[V:4] (3:2:2G8z4 | 
[V:5] (3:2:2G,,8C,4 | 
[V:1] (3:2:2D4G8 | 
[V:2] (3:2:2d4e8 | 
[V:3] (3B4G4c4 | 
[V:4] z8 | 
[V:5] (3:2:2B,,4C,8 | 
[V:1] (3B4B4B4 | 
[V:2] (3:2:2d8z4 | 
[V:3] (3B4d4d4 | 
[V:4] (3G4G4G4 | 
[V:5] (3G,,4G,,4G,4 | 
[V:1] (3:2:4A4G6F G | 
[V:2] z8 | 
[V:3] (3d4B4c4 | 
[V:4] (3:2:2F4G8 | 
[V:5] (3:2:2D,4E,8 | 
[V:1] (3:2:2F8D4- | 
[V:2] (3d4d4d4 | 
[V:3] (3d4A4B4 | 
[V:4] (3:2:2A8z4 | 
[V:5] (3:2:2D,8B,,4 | 
[V:1] (3D2E2F8 | 
[V:2] (3:2:2c4d8 | 
[V:3] (3c4A6B2 | 
[V:4] (3:2:2A8F4 | 
[V:5] (3:2:2A,,4D,8 | 
[V:1] (3E4C6D2 | 
[V:2] (3:2:2e8z4 | 
[V:3] (3:2:1c8/1023- | 
[V:4] (3:2:2G4A8 | 
[V:5] (3C,4A,,6B,,2 | 
[V:1] (3E4C4E4 | 
[V:2] (3:2:2e8c4 | 
[V:3] (3c4G6A2 | 
[V:4] (3:2:2G8z4 | 
[V:5] (3:2:2C,8C,4 | 
[V:1] (3D4G6A2 | 
[V:2] (3:2:2d4e8 | 
[V:3] (3B4G4c4 | 
[V:4] z8 | 
[V:5] (3:2:2B,,4C,8 | 
[V:1] [M:2/1]B8 | 
[V:2] [M:2/1](3:2:2d8z4 | 
[V:3] [M:2/1]B4d4 | 
[V:4] [M:2/1]G4G4 | 
[V:5] [M:2/1]G,,4z2G,,2 | 
[V:1] z4G4 | 
[V:2] z8 | 
[V:3] d4c4 | 
[V:4] G4E4 | 
[V:5] B,,4C,4 | 
[V:1] F4A4- | 
[V:2] d4d4 | 
[V:3] A4z2D2- | 
[V:4] z2F4F2 | 
[V:5] D,8 | 
[V:1] A4G4 | 
[V:2] d4B4 | 
[V:3] D2D2E2E2 | 
[V:4] F2F2G4 | 
[V:5] z8 | 
[V:1] E6E2 | 
[V:2] z2c4c2 | 
[V:3] C3DE4 | 
[V:4] A4z4 | 
[V:5] A,,6A,,2 | 
[V:1] E4F4 | 
[V:2] c2c2d4 | 
[V:3] z8 | 
[V:4] (3:2:2A8F4 | 
[V:5] A,,2A,,2D,4 | 
[V:1] [M:3/3]E3CC4 | 
[V:2] [M:3/3]e4z4 | 
[V:3] [M:3/3](3:2:2E8F4 | 
[V:4] [M:3/3](3:2:2G8A4 | 
[V:5] [M:3/3](3C,4A,,6B,,2 | 
[V:1] (3:2:2G8A4 | 
[V:2] (3:2:2e8c4 | 
[V:3] (3:2:2E4C8 | 
[V:4] (3:2:2G6z6 | 
[V:5] (3C,6B,,2A,,4 | 
[V:1] (3:2:2B8c4 | 
[V:2] (3:2:2d4e8 | 
[V:3] (3G4E6F2 | 
[V:4] (3:2:1z12 | 
[V:5] (3:2:2G,,4C,8 | 
[V:1] [M:3/3](3B4z4G4 | 
[V:2] d4z4 | 
[V:3] (3G4d4c4 | 
[V:4] [M:3/3](3G4G4E4 | 
[V:5] (3G,,4B,,4C,4 | 
[V:1] (3F4D4G4 | 
[V:2] z8 | 
[V:3] (3A4B4G4 | 
[V:4] (3F6D2E4 | 
[V:5] (3D,4B,,4C,4 | 
[V:1] (3F4A4G4 | 
[V:2] [M:3/3](3d4d4B4 | 
[V:3] (3B4A4d4 | 
[V:4] (3D4F4G4 | 
[V:5] (3:2:2D,8z4 | 
[V:1] (3E4F4D4 | 
[V:2] (3c6A2B4 | 
[V:3] (3c4F4G4 | 
[V:4] (3:2:2A8z4 | 
[V:5] (3:2:1z12 | 
[V:1] (3:2:2C8F4 | 
[V:2] (3A4c4d4 | 
[V:3] (3E4A6B2 | 
[V:4] (3A6G2F4 | 
[V:5] (3:2:2A,,8D,4 | 
[V:1] (3G4A4E4- | 
[V:2] (3:2:2e8z4 | 
[V:3] (3:2:1c8/1023- | 
[V:4] (3E4A6G2 | 
[V:5] (3C,4A,,6B,,2 | 
[V:1] (3:2:4E2F2G4A4 | 
[V:2] (3e6d2c4 | 
[V:3] (3:2:2c4C8 | 
[V:4] (3G4E4F4 | 
[V:5] (3C,6B,,2A,,4 | 
[V:1] (3B4c6B2 | 
[V:2] (3B4e6d2 | 
[V:3] (3D4E4G4 | 
[V:4] (3:2:2G8E4 | 
[V:5] (3:2:2G,,4C,8 | 
[V:1] (3:2:2A4G8 | 
[V:2] (3d4B4c4 | 
[V:3] (3F4E4C4 | 
[V:4] (3F4G6F2 | 
[V:5] (3:2:2D,4E,8 | 
[V:1] (3F4A4G4 | 
[V:2] (3:2:2d8B4 | 
[V:3] (3:2:2F8E4 | 
[V:4] (3A4F4G4 | 
[V:5] (3:2:2D,8E,4 | 
[V:1] (3:2:2E4F8 | 
[V:2] (3c4d6c2 | 
[V:3] (3:2:5C4F3GA3B | 
[V:4] (3A6G2F4 | 
[V:5] (3:2:2A,,4D,8 | 
[V:1] (3G4A4F4 | 
[V:2] (3e4c4d4 | 
[V:3] (3:2:4c6A2B2A2 | 
[V:4] (3:2:2E4F8 | 
[V:5] (3C,4A,,4D,4 | 
[V:1] (3G4E6F2 | 
[V:2] (3e6d2c4 | 
[V:3] (3c4G4A4 | 
[V:4] (3:2:1E8/1023- | 
[V:5] (3C,6B,,2A,,4 | 
[V:1] (3G4E6F2 | 
[V:2] (3:2:2B4c8 | 
[V:3] (3:2:2E8A4 | 
[V:4] (3:2:1E12- | 
[V:5] (3:2:2G,,4A,,8 | 
[V:1] (3:2:2G8E4 | 
[V:2] (3:2:1B8/1023- | 
[V:3] (3G4E6F2 | 
[V:4] (3:2:1E12- | 
[V:5] (3:2:1E,8/1023- | 
[V:1] (3:2:1E12 |]  
[V:2] (3:2:1B12 |]  
[V:3] (3:2:1G12 |]  
[V:4] (3:2:1E12 |]  
[V:5] (3:2:1E,12 |]  



